assets/Person fencing/Flat/person_fencing_flat.svg

<svg width="32" height="32" viewBox="0 0 32 32" fill="none" xmlns="http://www.w3.org/2000/svg">
<path d="M9.17079 12.26C9.14079 12.26 9.10079 12.25 9.07079 12.23L2.10079 8.13997C2.00079 8.08997 1.97079 7.96997 2.03079 7.86997C2.08079 7.77997 2.20079 7.74997 2.29079 7.79997L9.26079 11.89C9.35079 11.94 9.38079 12.06 9.33079 12.16C9.30079 12.22 9.23079 12.26 9.17079 12.26Z" fill="#636363"/>
<path d="M25.0909 3.57014L25.2655 3.71285C25.3874 3.57875 25.5867 3.56489 25.7308 3.68012C25.7308 3.68012 25.8608 3.79012 26.1008 3.99012C26.3908 4.22012 26.5508 4.57012 26.5608 4.93012L26.5908 7.08012C26.5908 9.69012 24.4708 11.8101 21.8608 11.8101H20.2908V9.72012H21.8608C23.3108 9.72012 24.4908 8.54012 24.4908 7.09012L24.4808 6.55012C24.3808 6.49012 24.2808 6.42012 24.1908 6.35012L23.8608 6.07012C23.6808 5.92012 23.6508 5.64012 23.8008 5.46012C23.9508 5.28012 24.2308 5.25012 24.4108 5.40012L24.6308 5.59012C24.6708 5.63012 24.7408 5.60012 24.7408 5.54012L24.7308 5.36012L24.7366 5.35533L24.1008 4.83012C23.9508 4.71012 23.9308 4.50012 24.0508 4.35012C24.0817 4.31154 24.1185 4.28157 24.1587 4.26036C24.0483 4.13751 24.0433 3.95469 24.1509 3.82015C24.2513 3.69466 24.4147 3.66016 24.5533 3.7225C24.5662 3.68662 24.5854 3.65202 24.6109 3.62014C24.7309 3.47014 24.9409 3.45014 25.0909 3.57014ZM18.6232 11.6282C18.9149 11.1298 18.7473 10.4893 18.2488 10.1976C17.7504 9.90594 17.1099 10.0736 16.8182 10.572L16.0296 11.9197L16.029 11.9207C15.2909 13.1735 13.6808 13.5959 12.4192 12.8578L12.4191 12.8578L12.4189 12.8576L11.0192 12.0378C10.5209 11.746 9.88031 11.9133 9.58845 12.4116C9.29658 12.9099 9.46393 13.5505 9.96224 13.8424L11.3622 14.6624L11.3626 14.6626C13.6206 15.984 16.5097 15.2268 17.8319 12.9805L17.8332 12.9782L18.6232 11.6282ZM19.0207 18.3501L22.0607 16.0801L27.5207 27.1601L25.0907 27.7201L19.0207 18.3501ZM19.0207 18.3501L16.2007 16.1001L10.7107 20.0801C10.3807 20.3101 10.2207 20.7101 10.3107 21.1001L11.8107 27.8301H14.0907L13.1007 21.8301L19.0207 18.3501Z" fill="#9B9B9B"/>
<path d="M11.5108 11.42L10.8708 11.04C10.0408 10.56 8.97075 10.83 8.49075 11.66C8.00075 12.49 8.28075 13.56 9.11075 14.04L9.75075 14.42C9.92075 14.52 10.1408 14.46 10.2308 14.29L11.6308 11.9C11.7408 11.74 11.6808 11.52 11.5108 11.42Z" fill="#E6E6E6"/>
<path d="M25.0907 27.72L23.2507 24.87L25.7407 23.54L27.8107 27.72H25.0907ZM11.8108 27.8301L11.0508 24.4401H13.5308L14.0908 27.8301H11.8108Z" fill="#D3D3D3"/>
<path d="M22.0707 16.1099C22.0707 16.0699 22.0707 16.0399 22.0707 15.9999V12.3499C22.0707 10.7299 20.7507 9.40991 19.1307 9.40991C17.5107 9.40991 16.1907 10.7299 16.1907 12.3499V16.0099C16.1907 16.0399 16.1907 16.0699 16.1907 16.1099L18.0807 17.9399C18.6607 18.5099 19.5907 18.4999 20.1707 17.9299L22.0507 16.0899L22.0707 16.1099Z" fill="#D3D3D3"/>
<path d="M19.4006 11.5401C18.4106 11.8301 17.4106 11.0901 17.4106 10.0601V9.0101L20.5006 8.3501V10.0601C20.5106 10.7401 20.0606 11.3401 19.4006 11.5401Z" fill="#E6E6E6"/>
<path d="M18.1908 3C16.7608 3 15.6008 4.16 15.6008 5.59V7.2C15.6008 8.63 16.7608 9.79 18.1908 9.79C19.6208 9.79 20.7808 8.63 20.7808 7.2V5.59C20.7808 4.16 19.6208 3 18.1908 3Z" fill="#D3D3D3"/>
<path d="M18.8807 6.22V8.22001C18.8807 8.86001 18.5607 9.43001 18.0807 9.77001C17.3207 9.74001 16.6407 9.37001 16.1907 8.82001C15.9007 8.37001 15.7307 7.84001 15.7307 7.27001V5.50001C15.7307 4.93001 15.9007 4.40001 16.1907 3.97001C16.6407 3.41001 17.3207 3.04001 18.0807 3.01001C18.5607 3.35001 18.8807 3.92001 18.8807 4.56001V5.69H20.7807V6.22H18.8807Z" fill="#E6E6E6"/>
<path d="M18.4708 8.04988V4.72988C18.4708 4.00988 18.0208 3.38988 17.3908 3.12988C16.3608 3.46988 15.6108 4.43988 15.6108 5.58988V7.19988C15.6108 8.34988 16.3608 9.31988 17.3908 9.65988C18.0208 9.38988 18.4708 8.77988 18.4708 8.04988Z" fill="#321B41"/>
<path d="M14.0907 29.1699V27.7199L11.6607 27.1699L9.40072 28.7399C9.09072 28.9499 9.24072 29.4399 9.62072 29.4399H13.8207C13.9707 29.4399 14.0907 29.3199 14.0907 29.1699ZM25.0908 29.1699V27.7199L27.5208 27.1699L29.7808 28.7399C30.0908 28.9499 29.9408 29.4399 29.5608 29.4399H25.3608C25.2108 29.4399 25.0908 29.3199 25.0908 29.1699Z" fill="#433B6B"/>
</svg>

<svg xmlns="http://www.w3.org/2000/svg" width="32" height="32" fill="none"><path fill="#636363" d="M9.17 12.26c-.03 0-.07-.01-.1-.03L2.1 8.14c-.1-.05-.13-.17-.07-.27.05-.09.17-.12.26-.07l6.97 4.09c.09.05.12.17.07.27-.03.06-.1.1-.16.1Z"/><path fill="#9B9B9B" d="m25.09 3.57.175.143a.337.337 0 0 1 .466-.033l.37.31c.29.23.45.58.46.94l.03 2.15c0 2.61-2.12 4.73-4.73 4.73h-1.57V9.72h1.57c1.45 0 2.63-1.18 2.63-2.63l-.01-.54c-.1-.06-.2-.13-.29-.2l-.33-.28a.44.44 0 0 1-.06-.61.44.44 0 0 1 .61-.06l.22.19c.04.04.11.01.11-.05l-.01-.18.006-.005-.636-.525a.337.337 0 0 1-.05-.48.344.344 0 0 1 .108-.09.337.337 0 0 1-.008-.44c.1-.125.264-.16.402-.097a.358.358 0 0 1 .058-.103c.12-.15.33-.17.48-.05Zm-6.467 8.058a1.046 1.046 0 1 0-1.805-1.056l-.788 1.348h-.001a2.638 2.638 0 0 1-3.61.938l-1.4-.82a1.046 1.046 0 0 0-1.057 1.804l1.4.82a4.73 4.73 0 0 0 6.47-1.682l.001-.002.79-1.35Zm.398 6.722 3.04-2.27 5.46 11.08-2.43.56-6.07-9.37Zm0 0L16.2 16.1l-5.49 3.98c-.33.23-.49.63-.4 1.02l1.5 6.73h2.28l-.99-6 5.92-3.48Z"/><path fill="#E6E6E6" d="m11.51 11.42-.64-.38c-.83-.48-1.9-.21-2.38.62-.49.83-.21 1.9.62 2.38l.64.38c.17.1.39.04.48-.13l1.4-2.39c.11-.16.05-.38-.12-.48Z"/><path fill="#D3D3D3" d="m25.09 27.72-1.84-2.85 2.49-1.33 2.07 4.18h-2.72Zm-13.28.11-.76-3.39h2.48l.56 3.39h-2.28ZM22.07 16.11v-3.76c0-1.62-1.32-2.94-2.94-2.94-1.62 0-2.94 1.32-2.94 2.94V16.11l1.89 1.83c.58.57 1.51.56 2.09-.01l1.88-1.84.02.02Z"/><path fill="#E6E6E6" d="M19.4 11.54c-.99.29-1.99-.45-1.99-1.48V9.01l3.09-.66v1.71c.01.68-.44 1.28-1.1 1.48Z"/><path fill="#D3D3D3" d="M18.19 3a2.59 2.59 0 0 0-2.59 2.59V7.2a2.59 2.59 0 0 0 5.18 0V5.59A2.59 2.59 0 0 0 18.19 3Z"/><path fill="#E6E6E6" d="M18.88 6.22v2c0 .64-.32 1.21-.8 1.55-.76-.03-1.44-.4-1.89-.95a2.85 2.85 0 0 1-.46-1.55V5.5c0-.57.17-1.1.46-1.53.45-.56 1.13-.93 1.89-.96.48.34.8.91.8 1.55v1.13h1.9v.53h-1.9Z"/><path fill="#321B41" d="M18.47 8.05V4.73c0-.72-.45-1.34-1.08-1.6a2.592 2.592 0 0 0-1.78 2.46V7.2c0 1.15.75 2.12 1.78 2.46.63-.27 1.08-.88 1.08-1.61Z"/><path fill="#433B6B" d="M14.09 29.17v-1.45l-2.43-.55-2.26 1.57c-.31.21-.16.7.22.7h4.2c.15 0 .27-.12.27-.27Zm11 0v-1.45l2.43-.55 2.26 1.57c.31.21.16.7-.22.7h-4.2c-.15 0-.27-.12-.27-.27Z"/></svg>
